X:1999
T:Trollungarnas schottis
C:Åke UFO Gustafsson
R:Schottis
Z:Åke Persson, 2008-10-06
O:Småland
B:Ur Lennart Mellgrens notbok med Åke UFO-låtar
M:2/4
L:1/8
K:F
Q:80

A, |: DD/E/  FG/F/ | ED C2 | ^CC/D/ EF/G/ | FE D>A, |  DD/E/  FG/F/ | ED C2 |  ^CC/D/ EF/C/ | DD D2 :|
|: AA/B/ cd/c/ | BA G2 | EE/F/ GA/G/ | FE D2 |  AA/B/ cd/c/ | BA G2 | EE/F/ G/F/E/F/ | DD D2 :|

(:musicend:)

(:music:)
